dist/images/paper.svg

<svg width="40" height="40" viewBox="0 0 40 40" fill="none" xmlns="http://www.w3.org/2000/svg">
<path d="M24 12C24.93 12 25.395 12 25.7765 12.1022C26.8117 12.3796 27.6204 13.1883 27.8978 14.2235C28 14.605 28 15.07 28 16V25.2C28 26.8802 28 27.7202 27.673 28.362C27.3854 28.9265 26.9265 29.3854 26.362 29.673C25.7202 30 24.8802 30 23.2 30H16.8C15.1198 30 14.2798 30 13.638 29.673C13.0735 29.3854 12.6146 28.9265 12.327 28.362C12 27.7202 12 26.8802 12 25.2V16C12 15.07 12 14.605 12.1022 14.2235C12.3796 13.1883 13.1883 12.3796 14.2235 12.1022C14.605 12 15.07 12 16 12M17 23L19 25L23.5 20.5M17.6 14H22.4C22.9601 14 23.2401 14 23.454 13.891C23.6422 13.7951 23.7951 13.6422 23.891 13.454C24 13.2401 24 12.9601 24 12.4V11.6C24 11.0399 24 10.7599 23.891 10.546C23.7951 10.3578 23.6422 10.2049 23.454 10.109C23.2401 10 22.9601 10 22.4 10H17.6C17.0399 10 16.7599 10 16.546 10.109C16.3578 10.2049 16.2049 10.3578 16.109 10.546C16 10.7599 16 11.0399 16 11.6V12.4C16 12.9601 16 13.2401 16.109 13.454C16.2049 13.6422 16.3578 13.7951 16.546 13.891C16.7599 14 17.0399 14 17.6 14Z" stroke="#6A994E" stroke-width="1.5" stroke-linecap="round" stroke-linejoin="round"/>
<rect x="0.75" y="0.75" width="38.5" height="38.5" rx="19.25" stroke="#6A994E" stroke-width="1.5"/>
</svg>

<svg width="40" height="40" fill="none" xmlns="http://www.w3.org/2000/svg"><path d="M24 12c.93 0 1.395 0 1.776.102a3 3 0 012.122 2.121C28 14.605 28 15.07 28 16v9.2c0 1.68 0 2.52-.327 3.162a3 3 0 01-1.311 1.311C25.72 30 24.88 30 23.2 30h-6.4c-1.68 0-2.52 0-3.162-.327a3 3 0 01-1.311-1.311C12 27.72 12 26.88 12 25.2V16c0-.93 0-1.395.102-1.777a3 3 0 012.121-2.12C14.605 12 15.07 12 16 12m1 11l2 2 4.5-4.5M17.6 14h4.8c.56 0 .84 0 1.054-.109a1 1 0 00.437-.437C24 13.24 24 12.96 24 12.4v-.8c0-.56 0-.84-.109-1.054a1 1 0 00-.437-.437C23.24 10 22.96 10 22.4 10h-4.8c-.56 0-.84 0-1.054.109a1 1 0 00-.437.437C16 10.76 16 11.04 16 11.6v.8c0 .56 0 .84.109 1.054a1 1 0 00.437.437C16.76 14 17.04 14 17.6 14z" stroke="#6A994E" stroke-width="1.5" stroke-linecap="round" stroke-linejoin="round"/><rect x=".75" y=".75" width="38.5" height="38.5" rx="19.25" stroke="#6A994E" stroke-width="1.5"/></svg>
